X:1
T:Pietà, 11.11.11.11
T:Pietà, 11.11.11.11
T:William Howard Doane, 1875
T:Public Domain Courtesy of the Cyber Hymnal™
C:William Howard Doane, 1875
Z:Public Domain
Z:Courtesy of the Cyber Hymnal™
%%score ( 1 2 ) ( 3 4 )
L:1/8
Q:1/4=115
M:3/4
K:Ab
V:1 treble 
V:2 treble 
V:3 bass 
V:4 bass 
V:1
 [CE]2 | E4 [DF]>[DG] | [CA]2 [CE]2 [EA]2 | [EB]2 E2 [EB]2 | [Ec]4 [Ec]2 | [Fd]2 [DF]2 [Fd]2 | %6
 [Ec]2 [EA]2 [Ec]2 | [=Dc]2 [DFB]2 D2 | [EB]4 [DE]2 | E4 [DF]>[DG] | [CA]2 [CE]2 [EA]2 | %11
 [EB]2 E2 [EB]2 | [Ec]4 [_Gc]2 | [Fe]2 [Fd]2 [FB]2 | [EA]2 [EG]2 [EA]2 | [Ec]2 [Ec]2 [DB]2 | %16
 [CA]4 |] %17
V:2
 x2 | (C2 E2) x2 | x6 | x6 | x6 | x6 | x6 | x4 =D2 | x6 | (C2 E2) x2 | x6 | x2 E2 x2 | x6 | x6 | %14
 x6 | x6 | x4 |] %17
V:3
 [A,,A,]2 | A,4 [E,B,]>[E,B,] | [A,,A,]2 [A,,C]2 [C,A,]2 | [E,G,]2 [E,G,]2 [E,G,]2 | %4
 [A,,A,]4 [A,,A,]2 | [F,A,]2 [F,A,]2 [F,A,]2 | [A,,A,]2 [C,A,]2 [A,,A,]2 | %7
 [B,,A,]2 [B,,F,]2 (B,A,) | [E,G,]4 [E,G,]2 | A,4 [E,B,]>[E,B,] | [A,,A,]2 [A,,C]2 [C,A,]2 | %11
 [E,G,]2 [E,G,]2 [E,G,]2 | [A,,A,]4 [A,,A,]2 | [D,A,]2 [D,B,]2 [D,D]2 | [E,C]2 [E,B,]2 [E,C]2 | %15
 [E,A,]2 [E,A,]2 [E,G,]2 | [A,,A,]4 |] %17
V:4
 x2 | (A,,2 C,2) x2 | x6 | x6 | x6 | x6 | x6 | x4 B,,2 | x6 | (A,,2 C,2) x2 | x6 | x6 | x6 | x6 | %14
 x6 | x6 | x4 |] %17

